X:1
T:Tritsch-Tratsch-Polka
T:TRITSCH - TRATSCH - POLKA
T:JOHANN  STRAUSS.
T:von
T:214tes Werk .
T:Public Domain
T:Public Domain
T:Public Domain
T:Public Domain
T:Public Domain
T:Public Domain
T:Public Domain
C:Johann Strauss II
Z:Public Domain
%%score { ( 1 3 ) | 2 }
L:1/8
M:2/4
K:A
V:1 treble nm="Piano" snm="Pno."
V:3 treble 
V:2 bass 
V:1
!f! !>!Tg2({fg} | a) z z2 | z2 z!p! e ||[Q:1/4=120]"^POLKA."{/e} e' z z e |{/e} e' z z [e^d'e'] | %5
 [e=d'e'][ec'e'][ebe'][eae'] | [ege'] z z f |{/g} b z z f |{/g} b z z (G/A/ | %9
!<(! B/c/d/e/ f/g/a/b/)!<)! |!>(!!>(! c'!>)!!>)! z z e |{/e} e' z z e |{/e} e' z z [e^d'e'] | %13
 [e=d'e'][ec'e'][ebe'][eae'] | [ege'] z z g |{/f} c' z z g |{/f} c' z!f! z F/G/ | ^Ace^a | %18
 b2- b b ||[K:E]!f!{/b} [dd']2 [dd']2 | [dd']2 [cc'][Bb] |{/b} e' z e' z | [Ee]4 |{/b} d' z d' z | %24
 [Dd]4 |{/g} [cc'] z [cc'] z | [Bb]3 b |{/b} [dd']2 [dd']2 | [dd']2 [cc'][Bb] |{/b} e' z e' z | %30
 [Ee]4 | [Ee][Ff] [=G=g] z | [=G=g][Ff] [Ee] z | [Bb] .B/.B/ .B.B | .B.B.B.B |!p! .f.^e.=e.^d | %36
"_cresc." .g.=g.f.e | .b.a.^g.f |!<(! .c'.b.a.g!<)! | [=gc'e'] .e'.c'.^a | .=g.e.c.^A | %41
!p! B=c ^cd | e2- e z |!f! ee !>![e=f]2 | ee !>![e^f]2 | ee !>![e=g]2 | ee !>![e^g]2 | [Gg]e[Aa]e | %48
 [^A^a]e[Bb]e | [=c=c']e[^c^c']e | [=d=d']e[^d^d']e ||[K:A]!p!{/e} e' z z e |{/e} e' z z [e^d'e'] | %53
 [e=d'e'][ec'e'][ebe'][eae'] | [ege'] z z f |{/g} b z z f |{/g} b z z (G/A/ | %57
!<(! B/c/d/e/ f/g/a/b/)!<)! |!>(! c'!>)! z z!p! e |{/e} e' z z e |{/e} e' z z [ee'] | %61
 [ee'][^d^d'][=d=d'][cc'] | [Bb] z z f |{/g} b z z f |{/g} b z z .^d/.e/ |!f! .g.f.=d.G | %66
 A2- A z |][K:D][M:2/4]!p! [fd']d[fd']d | P[fc'] z Pb z | P[gb] z Pa z | ([Ac]/d/e) ([Ac]/d/e) | %71
 P[gb] z Pa z | ([Ac]/d/e) ([Ac]/d/e) | P[fb] z Pa z | ([Fd]/e/f) ([Fd]/e/f) | [fd']d[fd']d | %76
 P[fc'] z Pb z | P[gb] z Pa z | ([Ac]/d/e) ([Ac]/d/e) |({AB)} cdef | [Gg][Aa][Bb][cc'] |1 %81
 [dd'] z [ff'] z | [dd'] z !>!A2 :|2 [dd'] z [ff'] z | [dd'] z !>!f2 || %85
!f!{/^a} !>![Bb]2{/a} !>![Bb]2 |{/^a} !>![Bb]2{/a} !>![Bb]2 | .B(B/c/ .d).e | .f z (T^g2{fg)} | %89
{/^g} !>![Aa]2{/g} !>![Aa]2 |{/^g} !>![Aa]2{/g} !>![Aa]2 | .A(A/B/ .=c).d | .e z (Tf2{e)f} | %93
{/f} !>![Gg]2{/f} !>![Gg]2 |{/f} !>![Gg]2{/f} !>![Gg]2 | .G(G/A/ .B).=c | d z !>!Te2({de)} | %97
 f z !>!Te2({de)} | f z !>!Te2({de)} | f z f z |{/f} f' z z2 |!p! [fd']d[fd']d | P[fc'] z Pb z | %103
 P[gb] z Pa z | ([Ac]/d/e) ([Ac]/d/e) | P[gb] z Pa z | ([Ac]/d/e) ([Ac]/d/e) | P[fb] z Pa z | %108
 ([Fd]/e/f) ([Fd]/e/f) | [fd']d[fd']d | P[fc'] z Pb z | P[gb] z Pa z | ([Ac]/d/e) ([Ac]/d/e) | %113
({AB)} cdef | [Gg][Aa][Bb][cc'] | [dd'] z [ff'] z | [dd'] z!f! T^g2 |][K:A][M:2/4]!p! a z z2 | %118
 z2 z!p! e ||{/e} e' z z e |{/e} e' z z [e^d'e'] | [e=d'e'][ec'e'][ebe'][eae'] | [ege'] z z f | %123
{/g} b z z f |{/g} b z z (G/A/ |!<(! B/c/d/e/ f/g/a/b/)!<)! |!>(! c'!>)! z z e |{/e} e' z z e | %128
{/e} e' z z [e^d'e'] | [e=d'e'][ec'e'][ebe'][eae'] | [ege'] z z g |{/f} c' z z g | %132
{/f} c' z z!f! F/G/ | ^Ace^a | b2- b b ||[K:E]!f!{/b} [dd']2 [dd']2 | [dd']2 [cc'][Bb] | %137
{/b} e' z e' z | [Ee]4 |{/b} d' z d' z | [Dd]4 |{/g} [cc'] z [cc'] z | [Bb]3 b | %143
{/b} [dd']2 [dd']2 | [dd']2 [cc'][Bb] |{/b} e' z e' z | [Ee]4 | [Ee][Ff] [=G=g] z | %148
 [=G=g][Ff] [Ee] z | [Bb] .B/.B/ .B.B | .B.B.B.B |!p! .f.^e.=e.d |"_cresc." .g.=g.f.e | .b.a.^g.f | %154
!<(! .c'.b.a.g!<)! | [=gc'e'] .e'.c'.^a | .=g.e.c.^A |!p! B=c ^cd | e2- e z |!f! ee !>![e=f]2 | %160
 ee !>![e^f]2 | ee !>![e=g]2 | ee !>![e^g]2 | [Gg]e[Aa]e | [^A^a]e[Bb]e | [=c=c']e[^c^c']e | %166
 [=d=d']e[^d^d']e ||[K:A]!p!{/e} e' z z e |{/e} e' z z [e^d'e'] | [e=d'e'][ec'e'][ebe'][eae'] | %170
 [ege'] z z f |{/g} b z z f |{/g} b z z (G/A/ |!<(! B/c/d/e/ f/g/a/b/)!<)! | c' z z e | %175
{/e} e' z z e |{/e} e' z z [ee'] | [ee'][^d^d'][=d=d'][cc'] | [Bb] z z f |{/g} b z z f | %180
{/g} !>!b z z .^d/.e/ |!f! .g.f.=d.G |!p! ([CEA]2 [DFB]2 | [Gde]4) | ([cea]2 [dfb]2) | [ebd'e']4 | %186
 .[ac'e'a']{/f'} e'{/f'}e'{/f'}e' |{/f'} .e' z z2 | .[Acea]!pp!{/F} E{/F}E{/F}E |{/F} E z z2 | %190
!<(!{e'f'g'} a'!<)! z!ff!{EFG} .Az/.A,/ | !>!!fermata!A,4 |] %192
V:2
 !>![E,B,DE]2 |!p! A,,[E,A,C] A,,[E,A,C] | A,,[E,A,C][E,A,C][E,A,C] || A,,[E,A,C] A,,[E,A,C] | %4
 A,,[E,A,C][E,A,C][E,A,C] | A,,[E,A,C] A,,[E,A,C] | E,[G,B,DE][G,B,DE][G,B,DE] | %7
 E,[G,B,DE] E,[G,B,DE] | E,[G,B,DE][G,B,DE][G,B,DE] | E,[G,B,DE] E,[G,B,DE] | %10
 A,,[A,CE][A,CE][A,CE] | A,,[E,A,C] A,,[E,A,C] | A,,[E,A,C][E,A,C][E,A,C] | A,,[E,A,C] A,,[E,A,C] | %14
 B,,[E,G,B,][E,G,B,][E,G,B,] | ^A,,[F,CE] [F,CE] z | ^A,,[F,CE] [F,CE] z | F,[CEF] F,[CEF] | %18
 B,,[B,^DF] [B,DF] z ||[K:E] A,[B,DF] F,[A,B,D] | D,[F,A,B,] B,,[D,A,B,] | E,[G,B,E] E,[G,B,E] | %22
 E,, [E,G,B,][E,G,B,][E,G,B,] | B,,[D,F,A,B,] B,,[D,F,A,B,] | B,,[D,F,A,B,][D,F,A,B,][D,F,A,B,] | %25
 E,,[E,G,B,] E,,[E,G,B,] | E,, [E,G,B,][E,G,B,][E,G,B,] | A,[B,DF] F,[A,B,D] | %28
 D,[F,A,B,] B,,[D,A,B,] | E,[G,B,E] E,[G,B,E] | E,, [E,G,B,][E,G,B,][E,G,B,] | %31
 [=C,E,=G,^A,][C,E,G,A,][C,E,G,A,] z | [=C,E,=G,^A,][C,E,G,A,][C,E,G,A,] z | %33
 [B,,^D,F,B,] .B,.B,.B, | .B,.B,.B,.B, | A,[B,^DF] A,[B,DF] | G,[B,E] G,[B,E] | %37
 F,[A,B,^D] F,[A,B,D] | E,[G,B,E] E,[G,B,E] | [^A,,,^A,,] .A,,.C,.E, | .=G,.^A,.C.E | %41
 [B,,F,=A,B,] z [B,,F,A,B,] z | [E,G,B,][E,G,B,] [E,G,B,] z | EE !>![E=F]2 | EE !>![E^F]2 | %45
 EE !>![E=G]2 | EE !>![E^G]2 | [E,G,]2 [E,A,]2 | [E,^A,]2 [E,B,]2 | [E,=C]2 [E,^C]2 | %50
 [E,=D]2 [E,^D]2 ||[K:A] A,,[E,A,C] A,,[E,A,C] | A,,[E,A,C][E,A,C][E,A,C] | A,,[E,A,C] A,,[E,A,C] | %54
 E,[G,B,DE][G,B,DE][G,B,DE] | E,[G,B,DE] E,[G,B,DE] | E,[G,B,DE][G,B,DE][G,B,DE] | %57
 E,[G,B,DE] E,[G,B,DE] | A,,[A,CE][A,CE][A,CE] | A,,[E,A,C] A,,[E,A,C] | %60
 ^A,,[E,=G,C][E,G,C][E,G,C] | B,,[D,F,B,] B,,[D,F,B,] | B,,[F,B,D][F,B,D][F,B,D] | %63
 E,[G,B,DE] [G,B,DE] z | E,[G,B,DE] [G,B,DE] z | E,[B,DE] E,[B,DE] | A,,A, A, z |] %67
[K:D][M:2/4] D,[F,A,D] A,,[F,A,D] | D,[F,A,D] A,,[F,A,D] | C,[G,A,E] A,,[G,A,C] | %70
 E,[G,A,C] A,,[G,A,C] | C,[G,A,E] A,,[G,A,C] | E,[G,A,C] A,,[G,A,C] | D,[F,A,D] A,,[F,A,D] | %74
 D,[F,A,D] A,,[F,A,D] | D,[F,A,D] A,,[F,A,D] | D,[F,A,D] A,,[F,A,D] | C,[G,A,E] A,,[G,A,C] | %78
 E,[G,A,C] A,,[G,A,C] | [A,CEG] z z2 | G,A,B,C |1 D z F z | D z !>![A,,A,]2 :|2 D z F z | %84
 D z !>![A,A]2 || B,,[F,B,D] B,,[F,B,D] | B,,[F,B,D] B,,[F,B,D] | B,,[F,B,D] B,,[F,B,D] | %88
 [B,,D,F,B,] z !>![E,B,DE]2 | A,[=CE] A,[CE] | A,[=CE] A,[CE] | A,[=CE] A,[CE] | %92
 [A,=CE] z !>![D,A,CD]2 | G,[B,D] G,[B,D] | G,[B,D] G,[B,D] | G,[B,D] G,[B,D] | %96
 [G,B,D] z !>![G,B,CE]2 | [F,^A,C] z !>![G,B,CE]2 | [F,^A,C] z [G,B,CE]2 | [F,^A,C] z F z | z4 | %101
 D,[F,A,D] A,,[F,A,D] | D,[F,A,D] A,,[F,A,D] | C,[G,A,E] A,,[G,A,C] | E,[G,A,C] A,,[G,A,C] | %105
 C,[G,A,E] A,,[G,A,C] | E,[G,A,C] A,,[G,A,C] | D,[F,A,D] A,,[F,A,D] | D,[F,A,D] A,,[F,A,D] | %109
 D,[F,A,D] A,,[F,A,D] | D,[F,A,D] A,,[F,A,D] | C,[G,A,E] A,,[G,A,C] | E,[G,A,C] A,,[G,A,C] | %113
 [A,CEG] z z2 | G,A,B,C | D z F z | D z !>![E,B,DE]2 |][K:A][M:2/4] A,,[E,A,C] A,,[E,A,C] | %118
 A,,[E,A,C][E,A,C][E,A,C] || A,,[E,A,C] A,,[E,A,C] | A,,[E,A,C][E,A,C][E,A,C] | %121
 A,,[E,A,C] A,,[E,A,C] | E,[G,B,DE][G,B,DE][G,B,DE] | E,[G,B,DE] E,[G,B,DE] | %124
 E,[G,B,DE][G,B,DE][G,B,DE] | E,[G,B,DE] E,[G,B,DE] | A,,[A,CE][A,CE][A,CE] | %127
 A,,[E,A,C] A,,[E,A,C] | A,,[E,A,C][E,A,C][E,A,C] | A,,[E,A,C] A,,[E,A,C] | %130
 B,,[E,G,B,][E,G,B,][E,G,B,] | ^A,,[F,CE] [F,CE] z | ^A,,[F,CE] [F,CE] z | F,[CEF] F,[CEF] | %134
 B,,[B,^DF] [B,DF] z ||[K:E] A,[B,DF] F,[A,B,D] | D,[F,A,B,] B,,[D,A,B,] | E,[G,B,E] E,[G,B,E] | %138
 E,, [E,G,B,][E,G,B,][E,G,B,] | B,,[D,F,A,B,] B,,[D,F,A,B,] | B,,[D,F,A,B,][D,F,A,B,][D,F,A,B,] | %141
 E,,[E,G,B,] E,,[E,G,B,] | E,, [E,G,B,][E,G,B,][E,G,B,] | A,[B,DF] F,[A,B,D] | %144
 D,[F,A,B,] B,,[D,A,B,] | E,[G,B,E] E,[G,B,E] | E,, [E,G,B,][E,G,B,][E,G,B,] | %147
 [=C,E,=G,^A,][C,E,G,A,][C,E,G,A,] z | [=C,E,=G,^A,][C,E,G,A,][C,E,G,A,] z | %149
 [B,,D,F,B,] .B,.B,.B, | .B,.B,.B,.B, | A,[B,DF] A,[B,DF] | G,[B,E] G,[B,E] | F,[A,B,D] F,[A,B,D] | %154
 E,[G,B,E] E,[G,B,E] | [^A,,,^A,,] .A,,.C,.E, | .=G,.^A,.C.E | [B,,F,=A,B,] z [B,,F,A,B,] z | %158
 [E,G,B,][E,G,B,] [E,G,B,] z | EE !>![E=F]2 | EE !>![E^F]2 | EE !>![E=G]2 | EE !>![E^G]2 | %163
 [E,G,]2 [E,A,]2 | [E,^A,]2 [E,B,]2 | [E,=C]2 [E,^C]2 | [E,=D]2 [E,^D]2 || %167
[K:A] A,,[E,A,C] A,,[E,A,C] | A,,[E,A,C][E,A,C][E,A,C] | A,,[E,A,C] A,,[E,A,C] | %170
 E,[G,B,DE][G,B,DE][G,B,DE] | E,[G,B,DE] E,[G,B,DE] | E,[G,B,DE][G,B,DE][G,B,DE] | %173
 E,[G,B,DE] E,[G,B,DE] | A,,[A,CE][A,CE][A,CE] | A,,[E,A,C] A,,[E,A,C] | %176
 ^A,,[E,=G,C][E,G,C][E,G,C] | B,,[D,F,B,] B,,[D,F,B,] | B,,[F,B,D][F,B,D][F,B,D] | %179
 E,[G,B,DE] [G,B,DE] z | E,[G,B,DE] [G,B,DE] z | E,[B,DE] E,[B,DE] | %182
 [A,,C,]/E,/[A,,C,]/E,/ [A,,B,,D,]/F,/[A,,B,,D,]/F,/ | %183
 [A,,D,E,]/G,/[A,,D,E,]/G,/ [A,,D,E,]/G,/[A,,D,E,]/G,/ | %184
 [A,,C,]/E,/[A,,C,]/E,/ [A,,B,,D,]/F,/[A,,B,,D,]/F,/ | %185
 [A,,D,E,]/G,/[A,,D,E,]/G,/ [A,,D,E,]/G,/[A,,D,E,]/G,/ | [A,,C,E,A,][K:treble] [CEA][CEA][CEA] | %187
 [CEA]!<(! z!<)![K:bass]{E,F,G,} A, z | [A,,A,] [A,C][A,C][A,C] | %189
 [A,C]!<(! z{E,,F,,G,,} A,,!<)! z | z2!ff! .[A,,A,]z/.[A,,,A,,]/ | !>!!fermata![A,,,A,,]4 |] %192
V:3
 x2 | x4 | x4 || x4 | x4 | x4 | x4 | x4 | x4 | x4 | x4 | x4 | x4 | x4 | x4 | x4 | x4 | x4 | %18
 z [B^df][Bdf] x ||[K:E] x4 | x4 | x4 | x4 | x4 | x4 | x4 | x4 | x4 | x4 | x4 | x4 | x4 | x4 | x4 | %34
 x4 | x4 | x4 | x4 | x4 | x4 | x4 | [DF] z [DF] z | z [EGB][EGB] x | x4 | x4 | x4 | x4 | x4 | x4 | %49
 x4 | x4 ||[K:A] x4 | x4 | x4 | x4 | x4 | x4 | x4 | x4 | x4 | x4 | x4 | x4 | x4 | x4 | x4 | %66
 z [CE][CE] x |][K:D][M:2/4] x4 | x4 | x4 | x4 | x4 | x4 | x4 | x4 | x4 | x4 | x4 | x4 | x4 | x4 |1 %81
 x4 | x4 :|2 x4 | x4 || x4 | x4 | x4 | x4 | x4 | x4 | x4 | x4 | x4 | x4 | x4 | x4 | x4 | x4 | x4 | %100
 x4 | x4 | x4 | x4 | x4 | x4 | x4 | x4 | x4 | x4 | x4 | x4 | x4 | x4 | x4 | x4 | x4 |] %117
[K:A][M:2/4] x4 | x4 || x4 | x4 | x4 | x4 | x4 | x4 | x4 | x4 | x4 | x4 | x4 | x4 | x4 | x4 | x4 | %134
 z [B^df][Bdf] x ||[K:E] x4 | x4 | x4 | x4 | x4 | x4 | x4 | x4 | x4 | x4 | x4 | x4 | x4 | x4 | x4 | %150
 x4 | x4 | x4 | x4 | x4 | x4 | x4 | [DF] z [DF] z | z [EGB][EGB] x | x4 | x4 | x4 | x4 | x4 | x4 | %165
 x4 | x4 ||[K:A] x4 | x4 | x4 | x4 | x4 | x4 | x4 | x4 | x4 | x4 | x4 | x4 | x4 | x4 | x4 | x4 | %183
 x4 | x4 | x4 | x4 | x4 | x4 | x4 | x4 | x4 |] %192

